icons/Pin_Area_1_filled.svg

<svg width="24" height="24" viewBox="0 0 24 24" fill="none" xmlns="http://www.w3.org/2000/svg">
<path fill-rule="evenodd" clip-rule="evenodd" d="M6.58333,8.08824c0,-3.32133 2.93746,-5.33824 5.41667,-5.33824c2.4792,0 5.4167,2.01691 5.4167,5.33824c0,1.59546 -0.8029,3.16736 -1.6844,4.43086c-0.8951,1.2829 -1.9482,2.3557 -2.6009,2.9716c-0.6396,0.6035 -1.6232,0.6035 -2.2628,0c-0.6527,-0.6159 -1.70577,-1.6887 -2.60088,-2.9716c-0.88148,-1.2635 -1.68439,-2.8354 -1.68439,-4.43086zM12,9.66667c0.9205,0 1.6667,-0.7462 1.6667,-1.66667c0,-0.92047 -0.7462,-1.66667 -1.6667,-1.66667c-0.9205,0 -1.6667,0.7462 -1.6667,1.66667c0,0.92047 0.7462,1.66667 1.6667,1.66667zM5.70403,13.8316c0.1874,-0.0772 0.38226,-0.1508 0.58401,-0.2206c0.04506,0.0665 0.0899,0.1317 0.1344,0.1955c0.26368,0.3779 0.53783,0.7379 0.81166,1.0755c-0.34311,0.1023 -0.66378,0.215 -0.95895,0.3366c-0.71541,0.2946 -1.24499,0.6263 -1.58401,0.9564c-0.33665,0.3277 -0.44114,0.6062 -0.44114,0.8249c0,0.2188 0.10449,0.4973 0.44114,0.825c0.33902,0.3301 0.8686,0.6618 1.58401,0.9564c1.42731,0.5877 3.45094,0.9686 5.72485,0.9686c2.2739,0 4.2975,-0.3809 5.7248,-0.9686c0.7155,-0.2946 1.245,-0.6263 1.5841,-0.9564c0.3366,-0.3277 0.4411,-0.6062 0.4411,-0.825c0,-0.2187 -0.1045,-0.4972 -0.4411,-0.8249c-0.3391,-0.3301 -0.8686,-0.6618 -1.5841,-0.9564c-0.2951,-0.1216 -0.6158,-0.2343 -0.9589,-0.3366c0.2738,-0.3376 0.548,-0.6976 0.8117,-1.0755c0.0445,-0.0638 0.0893,-0.129 0.1344,-0.1955c0.2017,0.0698 0.3966,0.1434 0.584,0.2206c0.8227,0.3388 1.538,0.7612 2.0592,1.2686c0.5236,0.5097 0.8948,1.152 0.8948,1.8997c0,0.7478 -0.3712,1.3901 -0.8948,1.8998c-0.5212,0.5074 -1.2365,0.9298 -2.0592,1.2686c-1.6491,0.6791 -3.8755,1.0816 -6.296,1.0816c-2.42051,0 -4.64688,-0.4025 -6.29597,-1.0816c-0.82278,-0.3388 -1.538,-0.7612 -2.05923,-1.2686c-0.52359,-0.5097 -0.8948,-1.152 -0.8948,-1.8998c0,-0.7477 0.37121,-1.39 0.8948,-1.8997c0.52123,-0.5074 1.23645,-0.9298 2.05923,-1.2686z" fill="#002B51"/>
</svg>

<svg width="24" height="24" viewBox="0 0 24 24" fill="none" xmlns="http://www.w3.org/2000/svg">
<path fill-rule="evenodd" clip-rule="evenodd" d="M6.58333 8.08824C6.58333 4.76691 9.52079 2.75 12 2.75C14.4792 2.75 17.4167 4.76691 17.4167 8.08824C17.4167 9.6837 16.6138 11.2556 15.7323 12.5191C14.8372 13.802 13.7841 14.8748 13.1314 15.4907C12.4918 16.0942 11.5082 16.0942 10.8686 15.4907C10.2159 14.8748 9.16283 13.802 8.26772 12.5191C7.38624 11.2556 6.58333 9.6837 6.58333 8.08824ZM12 9.66667C12.9205 9.66667 13.6667 8.92047 13.6667 8C13.6667 7.07953 12.9205 6.33333 12 6.33333C11.0795 6.33333 10.3333 7.07953 10.3333 8C10.3333 8.92047 11.0795 9.66667 12 9.66667ZM5.70403 13.8316C5.89143 13.7544 6.08629 13.6808 6.28804 13.611C6.3331 13.6775 6.37794 13.7427 6.42244 13.8065C6.68612 14.1844 6.96027 14.5444 7.2341 14.882C6.89099 14.9843 6.57032 15.097 6.27515 15.2186C5.55974 15.5132 5.03016 15.8449 4.69114 16.175C4.35449 16.5027 4.25 16.7812 4.25 16.9999C4.25 17.2187 4.35449 17.4972 4.69114 17.8249C5.03016 18.155 5.55974 18.4867 6.27515 18.7813C7.70246 19.369 9.72609 19.7499 12 19.7499C14.2739 19.7499 16.2975 19.369 17.7248 18.7813C18.4403 18.4867 18.9698 18.155 19.3089 17.8249C19.6455 17.4972 19.75 17.2187 19.75 16.9999C19.75 16.7812 19.6455 16.5027 19.3089 16.175C18.9698 15.8449 18.4403 15.5132 17.7248 15.2186C17.4297 15.097 17.109 14.9843 16.7659 14.882C17.0397 14.5444 17.3139 14.1844 17.5776 13.8065C17.6221 13.7427 17.6669 13.6775 17.712 13.611C17.9137 13.6808 18.1086 13.7544 18.296 13.8316C19.1187 14.1704 19.834 14.5928 20.3552 15.1002C20.8788 15.6099 21.25 16.2522 21.25 16.9999C21.25 17.7477 20.8788 18.39 20.3552 18.8997C19.834 19.4071 19.1187 19.8295 18.296 20.1683C16.6469 20.8474 14.4205 21.2499 12 21.2499C9.57949 21.2499 7.35312 20.8474 5.70403 20.1683C4.88125 19.8295 4.16603 19.4071 3.6448 18.8997C3.12121 18.39 2.75 17.7477 2.75 16.9999C2.75 16.2522 3.12121 15.6099 3.6448 15.1002C4.16603 14.5928 4.88125 14.1704 5.70403 13.8316Z" fill="#002B51"/>
</svg>
